dist/images/icons/icon-restorant.svg

<svg width="34" height="35" viewBox="0 0 34 35" fill="none" xmlns="http://www.w3.org/2000/svg">
<path d="M32.4062 28.186H28.6875V17.5139C29.016 17.4463 29.3259 17.3081 29.5956 17.1087C29.8653 16.9093 30.0884 16.6536 30.2492 16.3593C30.4101 16.065 30.505 15.7392 30.5273 15.4045C30.5495 15.0699 30.4987 14.7344 30.3782 14.4213L28.6875 10.0246V1.62354C28.6875 1.55377 28.6738 1.48468 28.6471 1.42021C28.6204 1.35575 28.5813 1.29718 28.5319 1.24784C28.4826 1.19851 28.424 1.15938 28.3596 1.13269C28.2951 1.106 28.226 1.09227 28.1562 1.09229H5.84375C5.77398 1.09227 5.70489 1.106 5.64043 1.13269C5.57597 1.15938 5.51739 1.19851 5.46806 1.24784C5.41872 1.29718 5.37959 1.35575 5.3529 1.42021C5.32621 1.48468 5.31248 1.55377 5.3125 1.62354V10.0246L3.6218 14.4213C3.50132 14.7344 3.45045 15.0699 3.47272 15.4045C3.49499 15.7392 3.58987 16.065 3.75076 16.3593C3.91165 16.6536 4.1347 16.9093 4.40439 17.1087C4.67409 17.3081 4.98397 17.4463 5.3125 17.5139V28.186H1.59375C1.52398 28.186 1.45489 28.1997 1.39043 28.2264C1.32597 28.2531 1.26739 28.2923 1.21806 28.3416C1.16872 28.3909 1.12959 28.4495 1.1029 28.514C1.07621 28.5784 1.06248 28.6475 1.0625 28.7173V32.436C1.06248 32.5058 1.07621 32.5749 1.1029 32.6394C1.12959 32.7038 1.16872 32.7624 1.21806 32.8117C1.26739 32.8611 1.32597 32.9002 1.39043 32.9269C1.45489 32.9536 1.52398 32.9673 1.59375 32.9673H32.4062C32.476 32.9673 32.5451 32.9536 32.6096 32.9269C32.674 32.9002 32.7326 32.8611 32.7819 32.8117C32.8313 32.7624 32.8704 32.7038 32.8971 32.6394C32.9238 32.5749 32.9375 32.5058 32.9375 32.436V28.7173C32.9375 28.6475 32.9238 28.5784 32.8971 28.514C32.8704 28.4495 32.8313 28.3909 32.7819 28.3416C32.7326 28.2923 32.674 28.2531 32.6096 28.2264C32.5451 28.1997 32.476 28.186 32.4062 28.186V28.186ZM26.5625 28.186V16.8551C26.8532 17.1565 27.2205 17.373 27.625 17.4813V28.186H26.5625ZM22.3125 28.7173V31.9048H20.1875V28.186H21.25C21.3909 28.186 21.526 28.1301 21.6256 28.0304C21.7253 27.9308 21.7812 27.7957 21.7812 27.6548V26.061C21.7812 25.9201 21.7253 25.785 21.6256 25.6854C21.526 25.5858 21.3909 25.5298 21.25 25.5298H18.0625C17.9216 25.5298 17.7865 25.5858 17.6869 25.6854C17.5872 25.785 17.5313 25.9201 17.5312 26.061V27.6548C17.5313 27.7957 17.5872 27.9308 17.6869 28.0304C17.7865 28.1301 17.9216 28.186 18.0625 28.186H19.125V31.9048H17V28.7173C17 28.6475 16.9863 28.5784 16.9596 28.514C16.9329 28.4495 16.8938 28.3909 16.8444 28.3416C16.7951 28.2923 16.7365 28.2531 16.6721 28.2264C16.6076 28.1997 16.5385 28.186 16.4688 28.186H15.4062V26.5923C15.4063 26.5225 15.3925 26.4534 15.3658 26.389C15.3392 26.3245 15.3 26.2659 15.2507 26.2166C15.2014 26.1673 15.1428 26.1281 15.0783 26.1014C15.0139 26.0747 14.9448 26.061 14.875 26.061H13.8125V17.5126C14.3275 17.4059 14.7907 17.1267 15.1254 16.721C15.1579 16.7615 15.1924 16.8007 15.2289 16.8392C15.444 17.0682 15.7039 17.2505 15.9925 17.3747C16.2811 17.4989 16.5922 17.5623 16.9064 17.561H17.0936C17.4078 17.5623 17.7189 17.4989 18.0075 17.3747C18.2961 17.2505 18.556 17.0682 18.771 16.8392C18.8076 16.8007 18.8421 16.7615 18.8746 16.721C18.9514 16.8135 19.0351 16.8999 19.125 16.9795V18.6235C18.4207 18.6242 17.7455 18.9043 17.2475 19.4023C16.7495 19.9003 16.4695 20.5755 16.4687 21.2798C16.4687 21.3496 16.4825 21.4186 16.5091 21.4831C16.5358 21.5476 16.575 21.6061 16.6243 21.6555C16.6736 21.7048 16.7322 21.7439 16.7967 21.7706C16.8611 21.7973 16.9302 21.8111 17 21.811H22.3125C22.3823 21.8111 22.4514 21.7973 22.5158 21.7706C22.5803 21.7439 22.6389 21.7048 22.6882 21.6555C22.7375 21.6061 22.7767 21.5476 22.8033 21.4831C22.83 21.4186 22.8438 21.3496 22.8437 21.2798C22.843 20.5755 22.563 19.9003 22.065 19.4023C21.567 18.9043 20.8918 18.6242 20.1875 18.6235V17.5126C20.3419 17.5449 20.4992 17.5612 20.657 17.561H20.823C21.1583 17.5613 21.4896 17.4885 21.7938 17.3476C22.0981 17.2068 22.368 17.0013 22.5848 16.7456C22.5987 16.7296 22.612 16.713 22.6246 16.6964C22.841 16.9671 23.1157 17.1855 23.4282 17.3352C23.7407 17.4849 24.083 17.5621 24.4295 17.561H24.5325C24.8663 17.5616 25.1964 17.4901 25.5 17.3512V26.061H24.4375C24.3677 26.061 24.2986 26.0747 24.2342 26.1014C24.1697 26.1281 24.1111 26.1673 24.0618 26.2166C24.0125 26.2659 23.9733 26.3245 23.9467 26.389C23.92 26.4534 23.9062 26.5225 23.9062 26.5923V28.186H22.8438C22.774 28.186 22.7049 28.1997 22.6404 28.2264C22.576 28.2531 22.5174 28.2923 22.4681 28.3416C22.4187 28.3909 22.3796 28.4495 22.3529 28.514C22.3262 28.5784 22.3125 28.6475 22.3125 28.7173V28.7173ZM18.5938 27.1235V26.5923H20.7188V27.1235H18.5938ZM8.26359 14.9227L9.43633 10.6548H11.5925L10.8016 15.454C10.7543 15.7461 10.6043 16.0118 10.3786 16.2032C10.153 16.3947 9.86642 16.4994 9.57047 16.4985H9.46754C9.27573 16.4985 9.08651 16.4542 8.91458 16.3691C8.74265 16.2841 8.59263 16.1605 8.47618 16.0081C8.35973 15.8557 8.27997 15.6785 8.2431 15.4903C8.20623 15.302 8.21324 15.1078 8.26359 14.9227V14.9227ZM8.5 17.3512C8.80362 17.4901 9.13367 17.5616 9.46754 17.561H9.57047C9.917 17.5621 10.2593 17.4849 10.5718 17.3352C10.8843 17.1855 11.159 16.9671 11.3754 16.6964C11.388 16.713 11.4013 16.7296 11.4152 16.7456C11.7578 17.1498 12.2292 17.4237 12.75 17.5212V20.2173H8.5V17.3512ZM13.177 16.4985C12.9959 16.4986 12.817 16.4593 12.6526 16.3832C12.4883 16.3072 12.3425 16.1963 12.2253 16.0582C12.1082 15.9201 12.0225 15.7582 11.9742 15.5837C11.9259 15.4091 11.9163 15.2262 11.9458 15.0476L12.6696 10.6548H14.8451L14.5888 15.3192C14.5713 15.6377 14.4324 15.9375 14.2007 16.1569C13.969 16.3762 13.6621 16.4985 13.343 16.4985H13.177ZM17.9994 16.1087C17.8832 16.2323 17.7429 16.3307 17.587 16.3978C17.4312 16.4649 17.2633 16.4991 17.0936 16.4985H16.9064C16.7371 16.4985 16.5695 16.464 16.4139 16.3972C16.2584 16.3303 16.118 16.2325 16.0015 16.1097C15.8849 15.9869 15.7946 15.8416 15.736 15.6827C15.6774 15.5239 15.6517 15.3548 15.6606 15.1857L15.909 10.6548H18.0911L18.3394 15.1824V15.1857C18.3491 15.3546 18.3239 15.5238 18.2654 15.6826C18.207 15.8414 18.1164 15.9864 17.9994 16.1087ZM19.4112 15.3192L19.1549 10.6548H21.3304L22.0542 15.0476C22.0837 15.2262 22.0741 15.4091 22.0258 15.5837C21.9775 15.7582 21.8918 15.9201 21.7747 16.0582C21.6575 16.1963 21.5117 16.3072 21.3474 16.3832C21.183 16.4593 21.0041 16.4986 20.823 16.4985H20.657C20.3379 16.4985 20.031 16.3762 19.7993 16.1569C19.5676 15.9375 19.4287 15.6377 19.4112 15.3192V15.3192ZM20.1875 19.686C20.517 19.6864 20.8383 19.7888 21.1074 19.979C21.3764 20.1692 21.58 20.438 21.6903 20.7485H17.6222C17.7325 20.438 17.9361 20.1692 18.2051 19.979C18.4742 19.7888 18.7955 19.6864 19.125 19.686H20.1875ZM25.5246 16.0071C25.4087 16.1604 25.2587 16.2846 25.0865 16.3699C24.9143 16.4552 24.7246 16.4992 24.5325 16.4985H24.4295C24.1336 16.4994 23.847 16.3947 23.6214 16.2032C23.3957 16.0118 23.2457 15.7461 23.1984 15.454L22.4075 10.6548H24.5637L25.7357 14.9201C25.7357 14.9207 25.7364 14.9221 25.7364 14.9227C25.7874 15.1075 25.7947 15.3017 25.758 15.4898C25.7212 15.678 25.6413 15.8551 25.5246 16.0071V16.0071ZM24.9688 27.1235H25.5V28.186H24.9688V27.1235ZM29.3868 14.8025C29.4595 14.9916 29.4851 15.1955 29.4614 15.3966C29.4377 15.5978 29.3654 15.7901 29.2508 15.9571C29.1361 16.1241 28.9825 16.2606 28.8033 16.3549C28.624 16.4493 28.4245 16.4986 28.222 16.4985C27.9488 16.4979 27.6834 16.408 27.4661 16.2424C27.2488 16.0768 27.0917 15.8447 27.0187 15.5815L25.6654 10.6548H27.7917L29.3868 14.8025ZM6.375 2.15479H27.625V9.59229H6.375V2.15479ZM4.74937 15.9573C4.63329 15.791 4.56011 15.5985 4.53636 15.397C4.51261 15.1955 4.53902 14.9913 4.61324 14.8025L6.20832 10.6548H8.33465L6.98129 15.5815C6.90827 15.8447 6.75115 16.0768 6.53389 16.2424C6.31663 16.408 6.05117 16.4979 5.77801 16.4985C5.57524 16.5 5.37525 16.4514 5.1958 16.357C5.01635 16.2626 4.863 16.1253 4.74937 15.9573V15.9573ZM6.375 17.4813C6.77946 17.373 7.14677 17.1565 7.4375 16.8551V28.186H6.375V17.4813ZM10.625 31.9048H2.125V29.2485H10.625V31.9048ZM11.1562 28.186H8.5V21.2798H12.75V31.9048H11.6875V28.7173C11.6875 28.6475 11.6738 28.5784 11.6471 28.514C11.6204 28.4495 11.5813 28.3909 11.5319 28.3416C11.4826 28.2923 11.424 28.2531 11.3596 28.2264C11.2951 28.1997 11.226 28.186 11.1562 28.186V28.186ZM13.8125 27.1235H14.3438V28.7173C14.3437 28.7871 14.3575 28.8561 14.3842 28.9206C14.4108 28.9851 14.45 29.0436 14.4993 29.093C14.5486 29.1423 14.6072 29.1814 14.6717 29.2081C14.7361 29.2348 14.8052 29.2486 14.875 29.2485H15.9375V31.9048H13.8125V27.1235ZM31.875 31.9048H23.375V29.2485H31.875V31.9048Z" fill="black"/>
<path d="M20.7188 6.40479H20.1424C20.031 5.75279 19.72 5.15143 19.2523 4.68372C18.7846 4.21601 18.1832 3.90501 17.5312 3.79365V3.21729C17.5312 3.07639 17.4753 2.94126 17.3757 2.84163C17.276 2.74201 17.1409 2.68604 17 2.68604C16.8591 2.68604 16.724 2.74201 16.6243 2.84163C16.5247 2.94126 16.4688 3.07639 16.4688 3.21729V3.79365C15.8168 3.90501 15.2154 4.21601 14.7477 4.68372C14.28 5.15143 13.969 5.75279 13.8576 6.40479H13.2812C13.1404 6.40479 13.0052 6.46076 12.9056 6.56039C12.806 6.66001 12.75 6.79514 12.75 6.93604C12.7506 7.49942 12.9747 8.03956 13.3731 8.43793C13.7715 8.83631 14.3116 9.0604 14.875 9.06104H19.125C19.6884 9.0604 20.2285 8.83631 20.6269 8.43793C21.0253 8.03956 21.2494 7.49942 21.25 6.93604C21.25 6.79514 21.194 6.66001 21.0944 6.56039C20.9948 6.46076 20.8596 6.40479 20.7188 6.40479V6.40479ZM17 4.81104C17.471 4.81164 17.9285 4.96841 18.3008 5.2568C18.6732 5.5452 18.9394 5.94893 19.0578 6.40479H14.9422C15.0606 5.94893 15.3268 5.5452 15.6992 5.2568C16.0715 4.96841 16.529 4.81164 17 4.81104V4.81104ZM19.125 7.99854H14.875C14.6885 7.99844 14.5054 7.9493 14.3439 7.85605C14.1825 7.76281 14.0484 7.62873 13.9551 7.46729H20.0449C19.9516 7.62873 19.8175 7.76281 19.6561 7.85605C19.4946 7.9493 19.3115 7.99844 19.125 7.99854Z" fill="black"/>
<path d="M13.0447 5.25305C13.1174 5.20454 13.1771 5.13882 13.2184 5.06171C13.2597 4.9846 13.2813 4.89849 13.2812 4.81104V3.21729H12.2188V4.50767C12.0502 4.5937 11.8718 4.65894 11.6875 4.70197V3.21729H10.625V4.70197C10.4407 4.65894 10.2623 4.59369 10.0938 4.50767V3.21729H9.03125V4.81104C9.03125 4.89849 9.05284 4.9846 9.09411 5.06171C9.13538 5.13882 9.19505 5.20454 9.26782 5.25305C9.67658 5.52599 10.1396 5.70722 10.625 5.78427V9.06104H11.6875V5.78427C12.1729 5.70722 12.6359 5.52599 13.0447 5.25305V5.25305Z" fill="black"/>
<path d="M22.8436 2.68604C22.3264 2.68607 21.827 2.87473 21.4389 3.21665C21.0508 3.55858 20.8007 4.0303 20.7356 4.5434C20.6704 5.0565 20.7946 5.57576 21.0849 6.00384C21.3752 6.43193 21.8116 6.73946 22.3124 6.86879V9.06104H23.3749V6.86879C23.8757 6.73946 24.3121 6.43193 24.6024 6.00384C24.8927 5.57576 25.0169 5.0565 24.9517 4.5434C24.8865 4.0303 24.6365 3.55858 24.2484 3.21665C23.8603 2.87473 23.3609 2.68607 22.8436 2.68604V2.68604ZM22.8436 5.87354C22.6335 5.87354 22.4281 5.81122 22.2533 5.69447C22.0786 5.57772 21.9424 5.41178 21.862 5.21764C21.7816 5.02349 21.7606 4.80986 21.8016 4.60375C21.8425 4.39765 21.9437 4.20833 22.0923 4.05973C22.2409 3.91114 22.4302 3.80995 22.6364 3.76895C22.8425 3.72795 23.0561 3.74899 23.2502 3.82941C23.4444 3.90983 23.6103 4.04601 23.7271 4.22074C23.8438 4.39547 23.9061 4.60089 23.9061 4.81104C23.9058 5.09273 23.7938 5.36279 23.5946 5.56198C23.3954 5.76117 23.1253 5.87321 22.8436 5.87354V5.87354Z" fill="black"/>
</svg>

<svg width="34" height="35" fill="none" xmlns="http://www.w3.org/2000/svg"><path d="M32.406 28.186h-3.718V17.514a2.31 2.31 0 001.69-3.093l-1.69-4.396V1.624a.531.531 0 00-.532-.532H5.844a.531.531 0 00-.532.532v8.4l-1.69 4.397a2.31 2.31 0 001.69 3.093v10.672H1.595a.531.531 0 00-.532.531v3.719a.532.532 0 00.532.531h30.812a.532.532 0 00.532-.531v-3.719a.53.53 0 00-.532-.531zm-5.843 0v-11.33c.29.3.658.517 1.062.625v10.705h-1.063zm-4.25.531v3.188h-2.125v-3.719h1.062a.53.53 0 00.531-.531V26.06a.53.53 0 00-.531-.531h-3.188a.531.531 0 00-.53.531v1.594a.531.531 0 00.53.531h1.063v3.719H17v-3.188a.53.53 0 00-.531-.531h-1.063v-1.594a.529.529 0 00-.531-.531h-1.063v-8.548a2.31 2.31 0 001.313-.792 2.29 2.29 0 001.781.84h.188a2.288 2.288 0 001.78-.84c.077.093.161.179.251.259v1.643a2.659 2.659 0 00-2.656 2.657.533.533 0 00.531.531h5.313a.529.529 0 00.53-.531 2.659 2.659 0 00-2.655-2.657v-1.11c.154.032.311.048.469.048h.166a2.305 2.305 0 001.802-.865 2.302 2.302 0 001.805.865h.102c.334 0 .664-.07.968-.21v8.71h-1.063a.53.53 0 00-.53.531v1.594h-1.063a.532.532 0 00-.532.531zm-3.72-1.593v-.532h2.126v.532h-2.125zM8.264 14.922l1.173-4.268h2.156l-.79 4.799a1.243 1.243 0 01-1.232 1.044h-.102a1.247 1.247 0 01-1.204-1.575zM8.5 17.35c.304.14.634.21.968.21h.102a2.3 2.3 0 001.805-.865 2.306 2.306 0 001.375.825v2.696H8.5V17.35zm4.677-.852a1.246 1.246 0 01-1.231-1.451l.724-4.393h2.175l-.256 4.664a1.248 1.248 0 01-1.246 1.18h-.166zm4.822-.39a1.237 1.237 0 01-.905.39h-.188a1.249 1.249 0 01-1.245-1.313l.248-4.531h2.182l.248 4.527v.004a1.233 1.233 0 01-.34.923zm1.412-.79l-.256-4.664h2.175l.724 4.393a1.248 1.248 0 01-1.231 1.45h-.166a1.248 1.248 0 01-1.246-1.179zm.776 4.367a1.597 1.597 0 011.503 1.063h-4.068a1.597 1.597 0 011.503-1.063h1.063zm5.338-3.679a1.238 1.238 0 01-.992.491h-.104a1.243 1.243 0 01-1.23-1.044l-.792-4.8h2.157l1.172 4.266v.003a1.24 1.24 0 01-.211 1.084zm-.556 11.116h.531v1.063h-.531v-1.063zm4.418-12.32a1.248 1.248 0 11-2.368.778l-1.354-4.926h2.127l1.595 4.148zM6.375 2.155h21.25v7.437H6.375V2.155zM4.749 15.957a1.23 1.23 0 01-.136-1.155l1.595-4.147h2.127L6.98 15.582a1.252 1.252 0 01-1.785.775 1.23 1.23 0 01-.447-.4zm1.626 1.524a2.304 2.304 0 001.063-.626v11.331H6.375V17.481zm4.25 14.424h-8.5v-2.657h8.5v2.657zm.531-3.719H8.5V21.28h4.25v10.625h-1.063v-3.188a.53.53 0 00-.53-.531zm2.656-1.063h.532v1.594a.53.53 0 00.531.532h1.063v2.656h-2.126v-4.782zm18.063 4.782h-8.5v-2.657h8.5v2.657z" fill="#000"/><path d="M20.719 6.405h-.577a3.195 3.195 0 00-2.61-2.611v-.577a.531.531 0 10-1.063 0v.577a3.195 3.195 0 00-2.611 2.61h-.577a.531.531 0 00-.531.532 2.127 2.127 0 002.125 2.125h4.25a2.127 2.127 0 002.125-2.125.531.531 0 00-.531-.531zM17 4.81a2.129 2.129 0 012.058 1.594h-4.116A2.129 2.129 0 0117 4.81zm2.125 3.188h-4.25a1.063 1.063 0 01-.92-.532h6.09a1.064 1.064 0 01-.92.532zm-6.08-2.745a.532.532 0 00.236-.442V3.217H12.22v1.29a2.339 2.339 0 01-.531.195V3.217h-1.063v1.485a2.337 2.337 0 01-.531-.194v-1.29H9.03V4.81a.531.531 0 00.237.442c.409.273.872.454 1.357.531V9.06h1.063V5.784a3.406 3.406 0 001.357-.53zm9.799-2.567a2.125 2.125 0 00-.532 4.183V9.06h1.063V6.869a2.125 2.125 0 00-.531-4.183zm0 3.188a1.063 1.063 0 110-2.126 1.063 1.063 0 010 2.126z" fill="#000"/></svg>
